src/assets/icons/replay-icon.svg

<?xml version="1.0" encoding="UTF-8"?><svg version="1.1" width="32px" height="32px" viewBox="0 0 32.0 32.0" xmlns="http://www.w3.org/2000/svg" xmlns:xlink="http://www.w3.org/1999/xlink"><defs><clipPath id="i0"><path d="M3250,0 L3250,5350 L0,5350 L0,0 L3250,0 Z"></path></clipPath><clipPath id="i1"><path d="M6.05,0 L7.525,1.475 L5.975,3.025 C7.675,3.025 9.12083333,3.6125 10.3125,4.7875 C11.5041667,5.9625 12.1,7.39166667 12.1,9.075 C12.1,10.7583333 11.5125,12.1875 10.3375,13.3625 C9.1625,14.5375 7.73333333,15.125 6.05,15.125 C4.36666667,15.125 2.9375,14.5291667 1.7625,13.3375 C0.5875,12.1458333 0,10.7083333 0,9.025 L2.1,9.025 C2.1,10.125 2.48333333,11.0666667 3.25,11.85 C4.01666667,12.6333333 4.95,13.025 6.05,13.025 C7.15,13.025 8.08333333,12.6416667 8.85,11.875 C9.61666667,11.1083333 10,10.175 10,9.075 C10,7.975 9.60833333,7.05 8.825,6.3 C8.04166667,5.55 7.1,5.15833333 6,5.125 L7.525,6.675 L6.05,8.15 L1.975,4.075 L6.05,0 Z"></path></clipPath></defs><g transform="translate(-20.0 -2881.0)"><g clip-path="url(#i0)"><g transform="translate(20.0 2812.999999999999)"><g transform="translate(0.0 68.00000000000091)"><g transform="translate(6.950000000000044 7.425000000000182)"><g clip-path="url(#i1)"><polygon points="0,0 12.1,0 12.1,15.125 0,15.125 0,0" stroke="none" fill="#0481A0"></polygon></g></g></g></g></g></g></svg>

<svg width="14" height="16" viewBox="0 0 14 16" xmlns="http://www.w3.org/2000/svg">
    <defs>
        <clipPath id="8nveda9dma">
            <path d="M3250 0v5350H0V0h3250z"/>
        </clipPath>
        <clipPath id="e88u576qqb">
            <path d="m6.05 0 1.475 1.475-1.55 1.55c1.7 0 3.146.587 4.338 1.762C11.504 5.963 12.1 7.393 12.1 9.075c0 1.683-.588 3.113-1.762 4.288-1.175 1.175-2.605 1.762-4.288 1.762-1.683 0-3.112-.596-4.287-1.787C.588 12.146 0 10.707 0 9.024h2.1c0 1.1.383 2.042 1.15 2.825.767.783 1.7 1.175 2.8 1.175 1.1 0 2.033-.383 2.8-1.15.767-.767 1.15-1.7 1.15-2.8 0-1.1-.392-2.025-1.175-2.775S7.1 5.158 6 5.125l1.525 1.55L6.05 8.15 1.975 4.075 6.05 0z"/>
        </clipPath>
    </defs>
    <g clip-path="url(#8nveda9dma)" transform="translate(-26 -2978)">
        <g clip-path="url(#e88u576qqb)" transform="translate(26.95 2978.425)">
            <path d="M0 0h12.1v15.125H0V0z"/>
        </g>
    </g>
</svg>
